X: 100177
M: C|
L: 1/8
K: G
uG |\
|: uc |\
g2g2 ecce | ^caca fdd=c | BgBg ecc^g | (a^g)a^c d2d=c |
(B/c/d) gd (ec)ce | (^c/d/e) ag (fd)d(g/a/) | bdBg ecAc | (B/c/d) DF G2"_Fine.""^D.C."G |]


